X:65
T:Willow's Hedgehog
C:Tim Moran
N:Chords from Tim
S:Tim Moran & Karen Davis, White Knuckle Jam, 2014.06.17
Z:abc-transcription Josh Larios <hades@elsewhere.org>, 2014.06.18
M:2/4
L:1/8
K:A mix
c/d/ |: "A"ef "D"ea/f/ | "A"ec "D"ea/f/ | "A"ec "D"d/c/A | "E"B2 Bc/d/ |
"A"ef "D"ea/f/ | "A"ec "D"ea/f/ | "A"e/d/c/A/ "E"B/c/e |1 "A"A2 Ac/d/ :|2 "A"A2 Aa/b/ |
|: "A"c'c' aa/b/ | c'a ba/b/ | c'a be | "D"f2fa/f/ |
"A"ef "D"ec/d/ | "A"ef "D"e2 | "A"E/F/A/B/ "E"c/A/B |1 "A"A2 Aa/b/ :|2 "A"A2!D.C.!A |]

